X: 15333
T: Gladiator, The
R: reel
M: 4/4
K: Gmajor
D2|:G2GA BAGB|c2e2 f3e|d2Bd cBAc|BAGB A2D2|
G2GA BAGB|c2e2 f3e|d2Bd cBAG|1 FDEF G2D2:|2 FDEF G2FA||
|:d2^cd BdcB|AFGA B^cde|f2ef d2fe|dB^c^A BAFA|
d2^cd BdcB|AFGA B^cde|f2eg f2de|1 dB^c^A B2FA:|2 dB^c^A B2BA||

